material/.icons/material/resize.svg

<?xml version="1.0" encoding="UTF-8"?><!DOCTYPE svg PUBLIC "-//W3C//DTD SVG 1.1//EN" "http://www.w3.org/Graphics/SVG/1.1/DTD/svg11.dtd"><svg xmlns="http://www.w3.org/2000/svg" xmlns:xlink="http://www.w3.org/1999/xlink" version="1.1" id="mdi-resize" width="24" height="24" viewBox="0 0 24 24"><path d="M10.59,12L14.59,8H11V6H18V13H16V9.41L12,13.41V16H20V4H8V12H10.59M22,2V18H12V22H2V12H6V2H22M10,14H4V20H10V14Z" /></svg>

<svg xmlns="http://www.w3.org/2000/svg" viewBox="0 0 24 24"><path d="M10.59 12l4-4H11V6h7v7h-2V9.41l-4 4V16h8V4H8v8h2.59M22 2v16H12v4H2V12h4V2h16M10 14H4v6h6v-6z"/></svg>
